X:18157
T:Valse de Jean Bernard
M:3/4
L:1/4
K:G
d|:e2d|G2d|e e/d/ c/B/|dAc|\
d2c|A2c|d d/c/ B/A/|1 BGd:|2 G2d||
|:e2g|f2e|f2e|d2d|\
e2d|c2c|d d/c/ B/A/|1 BGd:|2 G3||
